svg/cassette.svg

<svg xmlns="http://www.w3.org/2000/svg" viewBox="0 0 24 24"><path d="M4 5a2 2 0 0 0-2 2v10a2 2 0 0 0 2 2h2l1-2h10l1 2h2a2 2 0 0 0 2-2V7a2 2 0 0 0-2-2zm2.5 5A1.5 1.5 0 0 1 8 11.5 1.5 1.5 0 0 1 6.5 13 1.5 1.5 0 0 1 5 11.5 1.5 1.5 0 0 1 6.5 10M9 10h6v3H9zm8.5 0a1.5 1.5 0 0 1 1.5 1.5 1.5 1.5 0 0 1-1.5 1.5 1.5 1.5 0 0 1-1.5-1.5 1.5 1.5 0 0 1 1.5-1.5"/></svg>

<?xml version="1.0" encoding="UTF-8"?><!DOCTYPE svg PUBLIC "-//W3C//DTD SVG 1.1//EN" "http://www.w3.org/Graphics/SVG/1.1/DTD/svg11.dtd"><svg xmlns="http://www.w3.org/2000/svg" xmlns:xlink="http://www.w3.org/1999/xlink" version="1.1" id="mdi-cassette" width="24" height="24" viewBox="0 0 24 24"><path d="M4,5A2,2 0 0,0 2,7V17A2,2 0 0,0 4,19H6L7,17H17L18,19H20A2,2 0 0,0 22,17V7A2,2 0 0,0 20,5H4M6.5,10A1.5,1.5 0 0,1 8,11.5A1.5,1.5 0 0,1 6.5,13A1.5,1.5 0 0,1 5,11.5A1.5,1.5 0 0,1 6.5,10M9,10H15V13H9V10M17.5,10A1.5,1.5 0 0,1 19,11.5A1.5,1.5 0 0,1 17.5,13A1.5,1.5 0 0,1 16,11.5A1.5,1.5 0 0,1 17.5,10Z" /></svg>
